X:1
T:Title
L:1/8
Q:1/4=100
M:4/4
K:G
V:1 treble nm="Grand Piano"
V:1
 AGGF GFFE | FEED D2 DE | FGEF D4 | AGGF GFFE | FEED D2 DE | FGEF D4 | z A A2 A2 Bc | %7
w: ??????~???? * * * * * * *|||||||
 BAAG GF/E/ FE | z GGF FEAG | GFFE D3 D | AGGF GFFE | FGEF D4 | z d d2 dd A2 | z BBA AG F>E | %14
w: |||||||
 DF G2 A2 A2 | G>F EF E2 D2 | z BBA AGGF | FAAG GFFE | F2 G2 A2 A2 | z BBc cB B>A | GAAB BA A>G | %21
w: |||||||
 F2 G2 E2 D2 |] %22
w: |

